rospo-icon-theme-classic-common/22x22/apps/spacemacs.svg

<svg height="22" width="22" xmlns="http://www.w3.org/2000/svg"><rect fill="#8366b2" fill-opacity=".992" height="19.998" rx="10" ry="9.999" transform="matrix(0 -1 -1 0 0 0)" width="20" x="-21" y="-21"/><path d="m11 1.0000001c-5.5395 0-9.999 4.46-9.999 9.9999999 0 .08386-.002.166645 0 .25.1321-5.4229999 4.5435-9.7499999 9.999-9.7499999s9.867 4.3268 9.999 9.7499999c.002-.08335 0-.16614 0-.25 0-5.5399999-4.4595-9.9999999-9.999-9.9999999z" fill="#fff" opacity=".1"/><path d="m1.00585 11.25c-.00205.0835-.00585.166-.00585.25 0 5.54 4.46 10 10 10s10-4.46 10-10c0-.084-.004-.1665-.006-.25-.132 5.423-4.538 9.75-9.994 9.75s-9.862-4.327-9.994-9.75z" opacity=".2"/><path d="m3.4082031 1.5021471c-.6029781-.0119261-1.0776205.1571054-1.4941406.5253907-1.0340545.9190169-.9090658 2.9962377-.1425781 5.6289062.0538675-.1298264.1147266-.2558488.1738281-.3828125-.5136739-2.0134294-.7472893-2.834912.1152344-3.5917969.7166288-.6260469 1.8527108-.6782544 3.2714843-.1484375 2.5215225.9415976 5.3375598 2.4821679 8.2050778 6.1523439.270631.346383.460642.580943.691407.871094-.734458.01329-1.848257-.06033-2.808594-.234375-3.6127794-.654684-7.0160495-1.9272826-8.6113282-3.6054691-.1428493-.150273-.2592106-.26247-.2597657-.25-.000655.0128.3211547.6713841.7148438 1.4628906l.5917969 1.3847655.8808593.427735c.957092.474092 2.17643 1.029464 4.8242189 2.193359 2.900756 1.27507 4.198362 1.886943 5.515625 2.603515 1.055668.574273 2.128581 1.276559 2.669922 1.744141.184454.159974.22794.199952.24414.216797.0006-.01205.01316-.06958.0078-.117188-.03507-.259617-.236181-1.286238-.423828-2.236328-.0406-.215207-.08468-.429661-.126953-.644531-.01943-.09792-.0452-.233162-.0625-.320312-.02751-.138612-.05962-.269701-.08789-.40625-.397793-1.926157-.860469-3.8362634-1.449207-5.7187504-.271493-.857407-.443118-1.2744306-.722656-1.7832031-.10346-.1883635-1.246747-.960611-1.443359-1.0644531-.0032-.00164-.01535-.015098-.01758-.015625l-.002.00391c-.0072-.00359-.05728-.040189-.06055-.041016v.00195c-.0026-.000855-.0053-.00173-.0059-.00195-.01159.01069.07929.2078064.175781.3789062.988369 1.7529112 1.636808 4.3847179 1.306641 5.8574214-.0055.02288-.0092.04473-.01758.06836-.000421.0012-.0017.005-.002.0059-.0008-.00025-.0033.0002-.0039 0-.0077.0029-.02925.005-.03906.0078-.269613-.34882-.506354-.647472-.835805-1.082063-2.023437-2.6195889-5.7172236-6.4664349-9.5332036-7.6777342-.467788-.1338434-.8764945-.205735-1.2382813-.2128907z" opacity=".2"/><path d="m3.4082031 1.0021471c-.6029781-.0119261-1.0776205.1571054-1.4941406.5253907-1.0340545.9190169-.9090658 2.9962377-.1425781 5.6289062.0538675-.1298264.1147266-.2558488.1738281-.3828125-.5136739-2.0134294-.7472893-2.834912.1152344-3.5917969.7166288-.6260469 1.8527108-.6782544 3.2714843-.1484375 2.5215225.9415976 5.3375598 2.4821679 8.2050778 6.1523439.270631.346383.460642.580943.691407.871094-.734458.01329-1.848257-.06033-2.808594-.234375-3.6127794-.654684-7.0160495-1.9272826-8.6113282-3.6054691-.1428493-.150273-.2592106-.26247-.2597657-.25-.000655.0128.3211547.6713841.7148438 1.4628906l.5917969 1.3847656.8808593.4277349c.957092.474092 2.17643 1.029464 4.8242189 2.193359 2.900756 1.27507 4.198362 1.886943 5.515625 2.603515 1.055668.574273 2.128581 1.276559 2.669922 1.744141.184454.159974.22794.199952.24414.216797.0006-.01205.01316-.06958.0078-.117188-.03507-.259617-.236181-1.286238-.423828-2.236328-.0406-.215207-.08468-.429661-.126953-.644531-.01943-.09792-.0452-.233162-.0625-.320312-.02751-.138612-.05962-.269701-.08789-.40625-.397793-1.926157-.860469-3.8362634-1.449207-5.7187504-.271493-.857407-.443118-1.2744306-.722656-1.7832031-.10346-.1883635-1.246747-.960611-1.443359-1.0644531-.0032-.00164-.01535-.015098-.01758-.015625l-.002.00391c-.0072-.00359-.05728-.040189-.06055-.041016v.00195c-.0026-.000855-.0053-.00173-.0059-.00195-.01159.01069.07929.2078064.175781.3789062.988369 1.7529112 1.636808 4.3847179 1.306641 5.8574214-.0055.02288-.0092.04473-.01758.06836-.000421.0012-.0017.005-.002.0059-.0008-.00025-.0033.0002-.0039 0-.0077.0029-.02925.005-.03906.0078-.269613-.34882-.506354-.647472-.835805-1.0820629-2.023437-2.619589-5.7172236-6.466435-9.5332036-7.6777343-.467788-.1338434-.8764945-.205735-1.2382813-.2128907z" fill="#fff"/></svg>

<svg xmlns="http://www.w3.org/2000/svg" width="22" height="22" version="1">
 <rect width="20" height="19.998" x="-21" y="-21" rx="10" ry="9.999" transform="matrix(0,-1,-1,0,0,0)" style="fill:#8366b2;fill-opacity:0.99199997"/>
 <path d="m 11,1.0000001 c -5.5395,0 -9.999,4.46 -9.999,9.9999999 0,0.08386 -0.002,0.166645 0,0.25 C 1.1331,5.8270001 5.5445,1.5000001 11,1.5000001 c 5.4555,0 9.867,4.3268 9.999,9.7499999 0.002,-0.08335 0,-0.16614 0,-0.25 0,-5.5399999 -4.4595,-9.9999999 -9.999,-9.9999999 z" style="opacity:0.1;fill:#ffffff"/>
 <path d="M 1.00585,11.25 C 1.0038,11.3335 1,11.416 1,11.5 c 0,5.54 4.46,10 10,10 5.54,0 10,-4.46 10,-10 0,-0.084 -0.004,-0.1665 -0.006,-0.25 C 20.862,16.673 16.456,21 11,21 5.544,21 1.138,16.673 1.006,11.25 Z" style="opacity:0.2"/>
 <path style="opacity:0.2" d="M 3.4082031,1.5021471 C 2.805225,1.490221 2.3305826,1.6592525 1.9140625,2.0275378 0.880008,2.9465547 1.0049967,5.0237755 1.7714844,7.656444 1.8253519,7.5266176 1.886211,7.4005952 1.9453125,7.2736315 1.4316386,5.2602021 1.1980232,4.4387195 2.0605469,3.6818346 2.7771757,3.0557877 3.9132577,3.0035802 5.3320312,3.5333971 7.8535537,4.4749947 10.669591,6.015565 13.537109,9.685741 c 0.270631,0.346383 0.460642,0.580943 0.691407,0.871094 -0.734458,0.01329 -1.848257,-0.06033 -2.808594,-0.234375 C 7.8071426,9.667776 4.4038725,8.3951774 2.8085938,6.7169909 c -0.1428493,-0.150273 -0.2592106,-0.26247 -0.2597657,-0.25 -6.55e-4,0.0128 0.3211547,0.6713841 0.7148438,1.4628906 L 3.8554688,9.314647 4.7363281,9.742382 c 0.957092,0.474092 2.17643,1.029464 4.8242189,2.193359 2.900756,1.27507 4.198362,1.886943 5.515625,2.603515 1.055668,0.574273 2.128581,1.276559 2.669922,1.744141 0.184454,0.159974 0.22794,0.199952 0.24414,0.216797 6e-4,-0.01205 0.01316,-0.06958 0.0078,-0.117188 -0.03507,-0.259617 -0.236181,-1.286238 -0.423828,-2.236328 -0.0406,-0.215207 -0.08468,-0.429661 -0.126953,-0.644531 -0.01943,-0.09792 -0.0452,-0.233162 -0.0625,-0.320312 -0.02751,-0.138612 -0.05962,-0.269701 -0.08789,-0.40625 C 16.89907,10.849428 16.436394,8.9393216 15.847656,7.0568346 15.576163,6.1994276 15.404538,5.782404 15.125,5.2736315 15.02154,5.085268 13.878253,4.3130205 13.681641,4.2091784 c -0.0032,-0.00164 -0.01535,-0.015098 -0.01758,-0.015625 l -0.002,0.00391 c -0.0072,-0.00359 -0.05728,-0.040189 -0.06055,-0.041016 l 0,0.00195 c -0.0026,-8.55e-4 -0.0053,-0.00173 -0.0059,-0.00195 -0.01159,0.01069 0.07929,0.2078064 0.175781,0.3789062 0.988369,1.7529112 1.636808,4.3847179 1.306641,5.8574214 -0.0055,0.02288 -0.0092,0.04473 -0.01758,0.06836 -4.21e-4,0.0012 -0.0017,0.005 -0.002,0.0059 -8e-4,-2.5e-4 -0.0033,2e-4 -0.0039,0 -0.0077,0.0029 -0.02925,0.005 -0.03906,0.0078 C 14.74588,10.126015 14.509139,9.827363 14.179688,9.392772 12.156251,6.7731831 8.4624644,2.9263371 4.6464844,1.7150378 4.1786964,1.5811944 3.7699899,1.5093028 3.4082031,1.5021471 Z"/>
 <path d="M 3.4082031,1.0021471 C 2.805225,0.990221 2.3305826,1.1592525 1.9140625,1.5275378 0.880008,2.4465547 1.0049967,4.5237755 1.7714844,7.156444 1.8253519,7.0266176 1.886211,6.9005952 1.9453125,6.7736315 1.4316386,4.7602021 1.1980232,3.9387195 2.0605469,3.1818346 2.7771757,2.5557877 3.9132577,2.5035802 5.3320312,3.0333971 7.8535537,3.9749947 10.669591,5.515565 13.537109,9.185741 13.80774,9.532124 13.997751,9.766684 14.228516,10.056835 13.494058,10.070125 12.380259,9.996505 11.419922,9.82246 7.8071426,9.167776 4.4038725,7.8951774 2.8085938,6.2169909 c -0.1428493,-0.150273 -0.2592106,-0.26247 -0.2597657,-0.25 -6.55e-4,0.0128 0.3211547,0.6713841 0.7148438,1.4628906 L 3.8554688,8.8146471 4.7363281,9.242382 c 0.957092,0.474092 2.17643,1.029464 4.8242189,2.193359 2.900756,1.27507 4.198362,1.886943 5.515625,2.603515 1.055668,0.574273 2.128581,1.276559 2.669922,1.744141 0.184454,0.159974 0.22794,0.199952 0.24414,0.216797 6e-4,-0.01205 0.01316,-0.06958 0.0078,-0.117188 -0.03507,-0.259617 -0.236181,-1.286238 -0.423828,-2.236328 -0.0406,-0.215207 -0.08468,-0.429661 -0.126953,-0.644531 -0.01943,-0.09792 -0.0452,-0.233162 -0.0625,-0.320312 -0.02751,-0.138612 -0.05962,-0.269701 -0.08789,-0.40625 C 16.89907,10.349428 16.436394,8.4393216 15.847656,6.5568346 15.576163,5.6994276 15.404538,5.282404 15.125,4.7736315 15.02154,4.585268 13.878253,3.8130205 13.681641,3.7091784 c -0.0032,-0.00164 -0.01535,-0.015098 -0.01758,-0.015625 l -0.002,0.00391 c -0.0072,-0.00359 -0.05728,-0.040189 -0.06055,-0.041016 l 0,0.00195 c -0.0026,-8.55e-4 -0.0053,-0.00173 -0.0059,-0.00195 -0.01159,0.01069 0.07929,0.2078064 0.175781,0.3789062 0.988369,1.7529112 1.636808,4.3847179 1.306641,5.8574214 -0.0055,0.02288 -0.0092,0.04473 -0.01758,0.06836 -4.21e-4,0.0012 -0.0017,0.005 -0.002,0.0059 -8e-4,-2.5e-4 -0.0033,2e-4 -0.0039,0 -0.0077,0.0029 -0.02925,0.005 -0.03906,0.0078 C 14.74588,9.626015 14.509139,9.327363 14.179688,8.8927721 12.156251,6.2731831 8.4624644,2.4263371 4.6464844,1.2150378 4.1786964,1.0811944 3.7699899,1.0093028 3.4082031,1.0021471 Z" style="fill:#ffffff"/>
</svg>
